!!!OTL: 19. Khtos, metric section only
!!!Genre: Khtsos
!!!Mode: Minor
!!!One Mode: no
!!!Orig_tonic: Ab
**kern
*thru
!!pagebreak:original
*clefG2
*k[b-e-]
*g:
*M2/4
*>A
=1
!LO:TX:t=[quarter]=80
!LO:TX:a:i:t=G-minor
16GLL
16b-
16cc
16ddJJ
16ccLL
(8qee-/
16dd)
16b-
16ddJJ
=2
16ccLL
(8qee-/
16dd)
16b-
16ddJJ
16ccLL
(8qee-/
16dd)
16b-
16ddJJ
=3
16ddLL
16ccJJ
24ddLL
24cc
24b-JJ
16b-LL
16aJJ
24b-LL
24a
24gJJ
=4
8gL
16ggL
16ggJJ
4gg
=5
16gLL
16b-
16cc
16ddJJ
16ccLL
(8qee-/
16dd)
16b-
16ddJJ
!!linebreak:original
=6
16ccLL
(8qee-/
16dd)
16b-
16ddJJ
16ccLL
(8qee-/
16dd)
16b-
16ddJJ
=7
16ddLL
16ccJJ
24ddLL
24cc
24b-JJ
(16B-LL
16AJJ)
(24B-LL
24A
24GJJ)
=8
*>A1
4G
4g
=9:|!
*>A
=1
!LO:TX:t=[quarter]=80
!LO:TX:a:i:t=G-minor
16GLL
16b-
16cc
16ddJJ
16ccLL
(8qee-/
16dd)
16b-
16ddJJ
=2
16ccLL
(8qee-/
16dd)
16b-
16ddJJ
16ccLL
(8qee-/
16dd)
16b-
16ddJJ
=3
16ddLL
16ccJJ
24ddLL
24cc
24b-JJ
16b-LL
16aJJ
24b-LL
24a
24gJJ
=4
8gL
16ggL
16ggJJ
4gg
=5
16gLL
16b-
16cc
16ddJJ
16ccLL
(8qee-/
16dd)
16b-
16ddJJ
!!linebreak:original
=6
16ccLL
(8qee-/
16dd)
16b-
16ddJJ
16ccLL
(8qee-/
16dd)
16b-
16ddJJ
=7
16ddLL
16ccJJ
24ddLL
24cc
24b-JJ
(16B-LL
16AJJ)
(24B-LL
24A
24GJJ)
=8
*>A2
2g
=10!|:
*>B
16aLL
16b-JJ
4cc
16ffLL
16dd-XJJ
=11
4cc
20b-LL
20cc
20dd-X
20cc
20b-JJ
!!linebreak:original
=12
16aLL
16b-JJ
4cc
16b-LL
16aJJ
=13
8g
4gg
8gg
=14
16aLL
16b-JJ
4cc
16ffLL
16dd-XJJ
=15
8ccL
16ffL
16eenJJ
16dd-XLL
16cc
16b-
16aJJ
=16
16b-LL
16cc
16ddn
16b-JJ
8ccL
16b-L
16aJJ
*>B1
=17
4g
4gg
*>B
16aLL
16b-JJ
4cc
16ffLL
16dd-XJJ
=11
4cc
20b-LL
20cc
20dd-X
20cc
20b-JJ
!!linebreak:original
=12
16aLL
16b-JJ
4cc
16b-LL
16aJJ
=13
8g
4gg
8gg
=14
16aLL
16b-JJ
4cc
16ffLL
16dd-XJJ
=15
8ccL
16ffL
16eenJJ
16dd-XLL
16cc
16b-
16aJJ
=16
16b-LL
16cc
16ddn
16b-JJ
8ccL
16b-L
16aJJ
*>B2
=18:|!
2g
!!linebreak:original
=19!|:
*>C
16ddLL
16g
16dd
16ffJJ
16ee-LL
16dd
16cc
16ee-JJ
=20
16ddLL
16g
16dd
16ffJJ
16ee-LL
16dd
16cc
16ee-JJ
=21
16ddLL
16g
16b-
16ddJJ
8ccL
16b-L
16aJJ
=22
8gL
16ggL
16ggJJ
8gL
8ggJ
=23
16ddLL
16g
16dd
16ffJJ
16ee-LL
16dd
16cc
16ee-JJ
=24
16ddLL
16g
16dd
16ggJJ
16ffLL
16ee-
16dd
16ccJJ
!!linebreak:original
=25
16ddLL
16g
16b-
16ddJJ
8ccL
16b-L
16aJJ
*>C1
=26
4g
4gg
*>D
=28!|:
16aLL
16b-JJ
4cc
16ffLL
16dd-XJJ
=29
4cc
20b-LL
20cc
20dd-X
20cc
20b-JJ
=30
16aLL
16b-JJ
4cc
16b-LL
16aJJ
=31
4g
4gg
=32
16aLL
16b-JJ
4cc
16ffLL
16dd-XJJ
!!linebreak:original
=33
8ccL
16ffL
16eenJJ
16dd-XLL
16cc
16b-
16aJJ
=34
16b-LL
16cc
16ddn
16b-JJ
8ccL
16b-L
16aJJ
=35
4g
4gg
*-
